!!!SOCIAL_FUNCTION:	songs for success in ball game
!!!PDT:	1956
!!!OTL: No_220_Ball_Game_Song_(c).krn
!!!LANG: Non-Tone
!!!LING_GROUP: Muskogean
!!!REG: Florida
**kern
*staff1
=1-
*clefF4
*k[b-]
*M2/4
16F\LK
8.F\J
16A\LK
8.A\J
=2
8F\L
[8F\J
8F\]
8r
=3!|:
*M3/4
16F\LK
8.F\J
16A\LK
8.A\J
8F\L
8F\J
=4||
*M5/8
16A\LK
8.A\
16B-\K
8.B-\
8c\J
=5||
*M2/4
4.c\
8A\
=6||
*M3/4
16B-\LK
8.A\J
16B-\LK
8.A\J
8F\L
8F\J
=7||
*M2/4
16c\
16r
16A\
16r
8B-\L
16A\L
16F\JJ
=8||
*M3/4
16B-\LK
8.B-\J
16F\LK
8.F\J
4r
=9:|!
=
16c\
16r
16A\
16r
8B-\L
16A\L
16F\JJ
16A\LK
8.A\J
=10||
*M2/4
16c\
16r
16B-\
16r
16A\LK
8.F\J
=11||
*M3/4
16A\LK
8.A\J
8F\L
8F\J
4r
=12
8F\L
8F\J
16A\LK
8.A\J
8F\L
8F\J
=13||
*M5/8
16c\LK
8.c\
16A\K
8.A\
8c\J
=14||
*M2/4
4.c\
8A\
=15||
*M3/4
16B-\LK
8.A\J
16B-\LK
8.A\J
8F\L
8F\J
=16
16c\
16r
16A\
16r
8B-\L
16A\L
16F\JJ
16A\LK
8.A\J
=17||
*M2/4
16c\
16r
16B-\
16r
16A\LK
8.F\J
=18
16A\LK
8.A\J
8F\L
8F\J
=19
8c\
16r
16A\
4B-\
==
*-
